modules/themify-icons/icons/support.svg

<?xml version="1.0" encoding="utf-8"?>
<!-- Generated by IcoMoon.io -->
<!DOCTYPE svg PUBLIC "-//W3C//DTD SVG 1.1//EN" "http://www.w3.org/Graphics/SVG/1.1/DTD/svg11.dtd">
<svg version="1.1" xmlns="http://www.w3.org/2000/svg" xmlns:xlink="http://www.w3.org/1999/xlink" width="17" height="17" viewBox="0 0 17 17">
<g>
</g>
	<path d="M13.384 3c-0.937-1.829-2.805-3-4.884-3s-3.946 1.17-4.884 3h-3.616v13h17v-13h-3.616zM8.5 1c1.522 0 2.907 0.767 3.732 2h-7.464c0.826-1.232 2.21-2 3.732-2zM16 15h-15v-11h15v11zM8 10h-2v-1h2v-2h1v2h2v1h-2v2h-1v-2z" fill="#000000" />
</svg>

<svg xmlns="http://www.w3.org/2000/svg" width="17" height="17" viewBox="0 0 17 17"><path d="M13.384 3c-.937-1.829-2.805-3-4.884-3S4.554 1.17 3.616 3H0v13h17V3h-3.616zM8.5 1c1.522 0 2.907.767 3.732 2H4.768A4.49 4.49 0 0 1 8.5 1zM16 15H1V4h15v11zm-8-5H6V9h2V7h1v2h2v1H9v2H8v-2z"/></svg>
